app/img/arrow.svg

<svg width="15" height="8" viewBox="0 0 15 8" fill="none" xmlns="http://www.w3.org/2000/svg">
    <path d="M1 3.5C0.723858 3.5 0.5 3.72386 0.5 4C0.5 4.27614 0.723858 4.5 1 4.5V3.5ZM14.8536 4.35355C15.0488 4.15829 15.0488 3.84171 14.8536 3.64645L11.6716 0.464466C11.4763 0.269204 11.1597 0.269204 10.9645 0.464466C10.7692 0.659728 10.7692 0.976311 10.9645 1.17157L13.7929 4L10.9645 6.82843C10.7692 7.02369 10.7692 7.34027 10.9645 7.53553C11.1597 7.7308 11.4763 7.7308 11.6716 7.53553L14.8536 4.35355ZM1 4.5H14.5V3.5H1V4.5Z"
          fill="#022AF0"/>
</svg>

<svg width="15" height="8" fill="none" xmlns="http://www.w3.org/2000/svg"><path d="M1 3.5a.5.5 0 0 0 0 1v-1Zm13.854.854a.5.5 0 0 0 0-.708L11.672.464a.5.5 0 1 0-.708.708L13.793 4l-2.829 2.828a.5.5 0 1 0 .708.708l3.182-3.182ZM1 4.5h13.5v-1H1v1Z" fill="#022AF0"/></svg>
